brand_assets/business_categories/manufacturing_category.svg

<svg width="561" height="191" viewBox="0 0 561 191" fill="none" xmlns="http://www.w3.org/2000/svg">
<path d="M550.322 1.5625H10.5502C5.58651 1.5625 1.5625 5.58638 1.5625 10.5501V179.805C1.5625 184.769 5.58651 188.793 10.5502 188.793H550.322C555.285 188.793 559.309 184.769 559.309 179.805V10.5501C559.309 5.58638 555.285 1.5625 550.322 1.5625Z" stroke="white" stroke-width="3.12794" stroke-linecap="round" stroke-linejoin="round"/>
<path d="M1.5625 149.809C1.5625 149.809 1.56256 136.094 280.435 136.094C559.307 136.094 559.307 156.413 559.307 156.413" stroke="white" stroke-width="3.12794" stroke-linecap="round" stroke-linejoin="round"/>
<path d="M33.6721 188.788L21.9922 156.402C21.9922 156.402 92.2332 146.242 280.435 146.242C468.637 146.242 509.404 156.402 509.404 156.402L503.684 188.788" stroke="white" stroke-width="3.12794" stroke-linecap="round" stroke-linejoin="round"/>
<path d="M502.965 181.859H31.7266" stroke="white" stroke-width="3.12794" stroke-linecap="round" stroke-linejoin="round"/>
<path d="M525.15 178.5H518.039V183.834H525.15V178.5Z" stroke="white" stroke-width="3.12794" stroke-linecap="round" stroke-linejoin="round"/>
<path d="M542.359 178.5H527.945V183.834H542.359V178.5Z" stroke="white" stroke-width="3.12794" stroke-linecap="round" stroke-linejoin="round"/>
<path d="M64.8549 127.766H20.8594V133.1H64.8549V127.766Z" stroke="white" stroke-width="3.12794" stroke-linecap="round" stroke-linejoin="round"/>
<path d="M542.358 165.922H530.484V170.557H542.358V165.922Z" stroke="white" stroke-width="3.12794" stroke-linecap="round" stroke-linejoin="round"/>
</svg>

<svg xmlns="http://www.w3.org/2000/svg" width="561" height="191" fill="none" viewBox="0 0 561 191"><path stroke="#fff" stroke-linecap="round" stroke-linejoin="round" stroke-width="3.128" d="M550.322 1.563H10.55a8.99 8.99 0 0 0-8.987 8.987v169.255a8.99 8.99 0 0 0 8.987 8.988h539.772a8.99 8.99 0 0 0 8.987-8.988V10.55a8.99 8.99 0 0 0-8.987-8.987"/><path stroke="#fff" stroke-linecap="round" stroke-linejoin="round" stroke-width="3.128" d="M1.563 149.809s0-13.715 278.872-13.715 278.872 20.319 278.872 20.319"/><path stroke="#fff" stroke-linecap="round" stroke-linejoin="round" stroke-width="3.128" d="m33.672 188.788-11.68-32.386s70.241-10.16 258.443-10.16 228.969 10.16 228.969 10.16l-5.72 32.386M502.965 181.859H31.727M525.15 178.5h-7.111v5.334h7.111zM542.359 178.5h-14.414v5.334h14.414zM64.855 127.766H20.859v5.334h43.996zM542.358 165.922h-11.874v4.635h11.874z"/></svg>
